remix/Map/riding-line.svg

<svg viewBox="0 0 24 24" fill="currentColor" xmlns="http://www.w3.org/2000/svg"><path d="M5.5 21C3.01472 21 1 18.9853 1 16.5C1 14.0147 3.01472 12 5.5 12C7.98528 12 10 14.0147 10 16.5C10 18.9853 7.98528 21 5.5 21ZM5.5 19C6.88071 19 8 17.8807 8 16.5C8 15.1193 6.88071 14 5.5 14C4.11929 14 3 15.1193 3 16.5C3 17.8807 4.11929 19 5.5 19ZM18.5 21C16.0147 21 14 18.9853 14 16.5C14 14.0147 16.0147 12 18.5 12C20.9853 12 23 14.0147 23 16.5C23 18.9853 20.9853 21 18.5 21ZM18.5 19C19.8807 19 21 17.8807 21 16.5C21 15.1193 19.8807 14 18.5 14C17.1193 14 16 15.1193 16 16.5C16 17.8807 17.1193 19 18.5 19ZM11.023 10.3054L13 12V18H11V13L8.28117 10.7343C8.18221 10.6661 8.08802 10.588 8 10.5C7.21895 9.71895 7.21895 8.45262 8 7.67157L10.8284 4.84315C11.6095 4.0621 12.8758 4.0621 13.6569 4.84315L15.0711 6.25736C16.1746 7.36086 17.5548 8.01891 18.9884 8.23151L18.978 10.2474C17.0335 10.0218 15.1485 9.16323 13.6569 7.67157L11.023 10.3054ZM16 5C14.8954 5 14 4.10457 14 3C14 1.89543 14.8954 1 16 1C17.1046 1 18 1.89543 18 3C18 4.10457 17.1046 5 16 5Z"/></svg>

<svg viewBox="0 0 24 24" xmlns="http://www.w3.org/2000/svg"><path fill="none" d="M0 0h24v24H0Z"/><path d="M5.5 21v0C3.01 21 1 18.98 1 16.5 1 14.01 3.01 12 5.5 12v0c2.48 0 4.5 2.01 4.5 4.5 0 2.48-2.02 4.5-4.5 4.5Zm0-2v0C6.88 19 8 17.88 8 16.5 8 15.11 6.88 14 5.5 14v0C4.11 14 3 15.11 3 16.5 3 17.88 4.11 19 5.5 19Zm13 2v0c-2.49 0-4.5-2.02-4.5-4.5 0-2.49 2.01-4.5 4.5-4.5v0c2.48 0 4.5 2.01 4.5 4.5 0 2.48-2.02 4.5-4.5 4.5Zm0-2v0c1.38 0 2.5-1.12 2.5-2.5 0-1.39-1.12-2.5-2.5-2.5v0c-1.39 0-2.5 1.11-2.5 2.5 0 1.38 1.11 2.5 2.5 2.5Zm-7.477-8.695l1.97 1.69v6h-2v-5l-2.72-2.266v0c-.92-.63-1.15-1.88-.52-2.79 .06-.11.14-.2.23-.29l2.82-2.83v0c.78-.79 2.04-.79 2.82-.01 0 0 0 0 0 0l1.41 1.41 -.001-.001c1.05 1.06 2.43 1.75 3.91 1.97l-.01 2.01v0c-2.02-.24-3.89-1.14-5.321-2.58l-2.64 2.63ZM16 5v0c-1.11 0-2-.9-2-2 0-1.11.89-2 2-2v0c1.1 0 2 .89 2 2 0 1.1-.9 2-2 2Z"/></svg>
